frontend/public/svg/interface/upload.svg

<svg width="157" height="142" viewBox="0 0 157 142" fill="none" xmlns="http://www.w3.org/2000/svg">
<g clip-path="url(#clip0)">
<path d="M79.9127 18.8898C80.5483 19.5158 81.1594 20.1197 81.7523 20.7046C83.7849 22.7128 85.541 24.4464 87.3703 26.1758C89.1005 27.8153 90.8884 29.4491 92.6167 31.0287C93.8083 32.1178 94.9968 33.2101 96.1827 34.3053C98.0851 36.0738 99.9758 37.8547 101.852 39.6232L104.332 41.9577C104.434 42.0546 104.565 42.1163 104.704 42.1333C104.844 42.1502 104.986 42.1214 105.108 42.0519L107.22 40.8559C107.357 40.7785 107.463 40.6547 107.518 40.5061C107.573 40.3575 107.573 40.1938 107.519 40.0449C107.441 39.8273 107.378 39.6116 107.317 39.4006C107.198 38.8971 107 38.4159 106.73 37.9757C98.6424 26.2414 89.8734 14.9982 80.4687 4.30383C79.5644 3.25301 78.5326 2.32026 77.3973 1.52848C74.8488 -0.214604 72.0894 0.192318 70.0219 2.62195C69.5189 3.2441 69.0665 3.90591 68.6684 4.60089L66.2306 8.57783C61.4834 16.3168 56.5743 24.3198 51.7797 32.2125C50.9671 33.3811 50.402 34.7052 50.1194 36.103C50.0747 36.7508 50.1816 37.4004 50.4315 37.9992C50.6814 38.5979 51.0673 39.1292 51.5583 39.5506C52.4749 40.187 54.4064 40.3542 55.3508 39.6429C57.0043 38.4132 58.4416 36.9133 59.603 35.206C61.4692 32.4149 63.2926 29.5343 65.0571 26.7477C66.5653 24.3656 68.1253 21.9012 69.7015 19.51C70.0031 19.054 70.2685 18.5632 70.5248 18.0896C71.042 16.9235 71.8285 15.898 72.8182 15.0992C72.7483 15.8711 72.6713 16.6337 72.5962 17.388C72.3075 19.8093 72.1509 22.2443 72.1256 24.6828L72.1412 26.6853C72.2603 42.0135 72.3839 57.8647 72.8124 73.4492C73.0681 82.7398 73.5549 92.1743 74.0261 101.299C74.2358 105.362 74.4397 109.425 74.6365 113.488C74.6475 113.72 74.6533 113.954 74.6592 114.187C74.6585 114.875 74.7148 115.563 74.8268 116.243C75.201 118.197 76.2185 119.281 77.6536 119.281C77.8109 119.281 77.9675 119.269 78.1222 119.245C79.1333 119.09 80.7885 118.225 81.1361 117.065C81.8902 114.69 82.3342 112.226 82.4579 109.737C82.6022 105.359 82.5828 100.675 82.3932 94.9974C81.8753 79.3084 81.3393 63.6192 80.7846 47.9301C80.4946 39.5869 80.2059 31.244 79.9185 22.9011C79.8855 21.9241 79.8926 20.9281 79.9017 19.6697C79.9094 19.4176 79.9114 19.1588 79.9127 18.8898Z" fill="black"/>
<path d="M151.003 73.4097C149.991 73.4279 149.024 73.8318 148.296 74.5385C147.568 75.2459 147.134 76.2034 147.079 77.2202C146.828 81.5506 146.193 92.2898 145.761 98.4557C145.372 103.996 145.13 109.637 144.895 115.091C144.761 118.228 144.626 121.364 144.464 124.499C144.393 125.51 144.268 126.516 144.09 127.512C144.036 127.85 143.982 128.192 143.93 128.538C143.653 128.583 143.387 128.629 143.131 128.672C142.415 128.811 141.691 128.91 140.964 128.967C137.044 129.185 133.059 129.438 129.207 129.683C120.029 130.269 110.54 130.873 101.206 131.043C85.3862 131.331 69.2936 131.301 53.7301 131.271C48.7816 131.261 43.8334 131.254 38.8854 131.251H38.7754C31.2887 131.251 23.8382 131.097 17.5374 130.945C15.9599 130.907 14.3934 130.74 12.5784 130.546C11.8502 130.468 11.0896 130.386 10.2792 130.308C10.1264 128.036 10.0158 123.338 9.87855 117.52C9.52771 102.625 9.0467 82.2247 7.3184 78.4474C7.27807 78.3588 7.21906 78.2807 7.14537 78.2175C7.07168 78.1543 6.98517 78.108 6.89189 78.0826C6.41361 77.9035 5.90258 77.8312 5.39389 77.8696C4.88521 77.9087 4.39083 78.0572 3.94465 78.3061C3.62663 78.5301 3.36088 78.8206 3.16571 79.1581C2.97054 79.4955 2.85066 79.872 2.81448 80.2602C2.53614 82.2143 1.09009 107.127 1.01306 121.721C1.12051 123.784 1.29337 126.084 1.46037 128.306C1.58401 129.944 1.70564 131.564 1.80014 133.062C2.04094 136.909 4.21397 139.31 8.08293 140.006C10.512 140.396 12.9638 140.626 15.4226 140.696C26.7621 141.233 38.2077 141.392 49.5763 141.392C58.0106 141.392 66.406 141.303 74.6747 141.217C79.2886 141.169 83.9033 141.125 88.5179 141.087C98.8353 141.012 109.702 140.787 121.74 140.4C127.203 140.224 132.751 139.927 138.117 139.64C141.498 139.459 144.879 139.278 148.26 139.124C152.509 138.929 154.733 137.254 155.693 133.513C156.156 131.402 156.402 129.247 156.426 127.084L156.47 126.116C157.168 112.097 155.758 87.2325 155.119 77.1929C155.048 76.1507 154.581 75.1762 153.814 74.4721C153.048 73.7673 152.041 73.3869 151.003 73.4097Z" fill="black"/>
</g>
<defs>
<clipPath id="clip0">
<rect width="156" height="142" fill="white" transform="translate(0.777344)"/>
</clipPath>
</defs>
</svg>

<svg xmlns="http://www.w3.org/2000/svg" width="157" height="142" fill="none" viewBox="0 0 157 142"><g fill="#000" clip-path="url(#a)"><path d="m79.913 18.89 1.84 1.815c2.032 2.008 3.788 3.741 5.617 5.47 1.73 1.64 3.518 3.274 5.247 4.854q1.787 1.633 3.566 3.276a1124 1124 0 0 1 5.669 5.318l2.48 2.335a.66.66 0 0 0 .776.094l2.112-1.196a.67.67 0 0 0 .299-.811 11 11 0 0 1-.202-.644 4.9 4.9 0 0 0-.587-1.425A363 363 0 0 0 80.469 4.304a16.5 16.5 0 0 0-3.072-2.776C74.85-.215 72.09.192 70.022 2.622a15 15 0 0 0-1.354 1.979l-2.437 3.977A6435 6435 0 0 0 51.78 32.213a10.4 10.4 0 0 0-1.66 3.89 4.2 4.2 0 0 0 .312 1.896c.25.599.635 1.13 1.126 1.552.917.636 2.848.803 3.793.092a18.5 18.5 0 0 0 4.252-4.437c1.866-2.791 3.69-5.672 5.454-8.458 1.508-2.382 3.068-4.847 4.644-7.238.302-.456.568-.947.824-1.42a8 8 0 0 1 2.293-2.99c-.07.771-.147 1.534-.222 2.288a68 68 0 0 0-.47 7.295l.015 2.002c.12 15.329.243 31.18.671 46.764.256 9.29.743 18.725 1.214 27.85q.316 6.095.61 12.189.015.349.023.699c0 .688.056 1.376.168 2.056.374 1.954 1.392 3.038 2.827 3.038q.236 0 .468-.036c1.011-.155 2.666-1.02 3.014-2.18a29 29 0 0 0 1.322-7.328c.144-4.378.125-9.062-.065-14.74q-.777-23.533-1.608-47.067-.436-12.514-.867-25.029c-.033-.977-.025-1.973-.016-3.231q.01-.377.01-.78"/><path d="M151.003 73.41a4 4 0 0 0-2.707 1.129 4.04 4.04 0 0 0-1.217 2.681c-.251 4.33-.886 15.07-1.318 21.236-.389 5.54-.631 11.181-.866 16.635-.134 3.137-.269 6.273-.431 9.408a29 29 0 0 1-.374 3.013q-.081.507-.16 1.026l-.799.134q-1.075.209-2.167.295c-3.92.218-7.905.471-11.757.716-9.178.586-18.667 1.19-28.001 1.36-15.82.288-31.912.258-47.476.228q-7.422-.015-14.845-.02h-.11c-7.486 0-14.937-.154-21.238-.306-1.577-.038-3.144-.205-4.959-.399-.728-.078-1.488-.16-2.299-.238-.153-2.272-.263-6.97-.4-12.788-.351-14.895-.832-35.295-2.56-39.073a.67.67 0 0 0-.427-.364 3.52 3.52 0 0 0-2.947.223 2.69 2.69 0 0 0-1.13 1.954c-.279 1.954-1.725 26.867-1.802 41.461.108 2.063.28 4.363.447 6.585.124 1.638.246 3.258.34 4.756.24 3.847 2.414 6.248 6.283 6.944 2.429.39 4.88.62 7.34.69 11.34.537 22.785.696 34.153.696 8.435 0 16.83-.089 25.099-.175q6.92-.072 13.843-.13c10.317-.075 21.184-.3 33.222-.687 5.463-.176 11.011-.473 16.377-.76 3.381-.181 6.762-.362 10.143-.516 4.249-.195 6.473-1.87 7.433-5.611.463-2.111.709-4.266.733-6.429l.044-.968c.698-14.019-.712-38.883-1.351-48.923a4.07 4.07 0 0 0-1.305-2.72 4.02 4.02 0 0 0-2.811-1.063"/></g><defs><clipPath id="a"><path fill="#fff" d="M.777 0h156v142h-156z"/></clipPath></defs></svg>
